X:1
T:Gran Vals
T:Music by: Francisco Tarréga (1852-1909) Arranged by: Lola Blazes
T:G R A N  V A L S
T:CC 2011 music-engraver.com
T:CC 2011 music-engraver.com
T:CC 2011 music-engraver.com
T:CC 2011 music-engraver.com
T:CC 2011 music-engraver.com
T:CC 2011 music-engraver.com
T:CC 2011 music-engraver.com
T:CC 2011 music-engraver.com
T:CC 2011 music-engraver.com
T:CC 2011 music-engraver.com
T:CC 2011 music-engraver.com
T:CC 2011 music-engraver.com
Z:CC 2011 music-engraver.com
%%score 1 2 3 4
L:1/8
Q:1/4=160
M:3/4
K:A
V:1 treble nm="Violin 1" snm="Vln."
V:2 treble nm="Violin 2" snm="Vln."
V:3 bass nm="Trombone" snm="Trb."
V:4 bass nm="C Tuba" snm="C Tu."
V:1
"^Tempo di valse" e2!mf! | e6 | f6 | f6 | g6 | g4 a2 | a4 g2 |{g} f4 z2 | z6 |!mf! f6 |!<(! g4 a2 | %11
 c'6 | b6!<)! | (e'd') f2 g2 | (c'b) d2 e2 | (ba) c2 e2 | z4!mf! e2 |!<(! e6 | f6 | f6 | g6 | g6 | %22
 a6!<)! | e'6 | d'6 |!>(! f6 | d'6 | c'6!>)! | e6 | f6 | b6 | a6- | a2!f! (e'^d') (f'e') |: %33
 (3c'/^d'/c'/ z b2 b2 | z B eg eg | (3a/b/a/ z ^d2 d2 | z2 (f'^d') (e'c') | e'2 ^d'2 d'2 | %38
 z2 (^d'b) (c'a) | (3c'/^d'/c'/ z b2 b2 | z2 (e'^d') (f'e') | (3c'/^d'/c'/ z b2 b2 | z E GB eb | %43
 b2 c2 c2 | z F GA Bc | (3c/^d/c/ z e2 e'2 | ^d'2 c'2 ^d2 |1 e6 | e2 (e'^d') (f'e') :|2 e6- | %50
 e2 z4 |:!mf! z2 f2 f2 | z2 f2 f2 | z2 f2 f2 | c6 | z2 f2 f2 | z2 f2 f2 | (3^A/B/A/ z =A2 ^A2 | %58
 e6 | ^d6 | ^d6 | ^d6 | ^a4 g2 | f2 B2 e2 | ^d4 c2 |1 B6 | B2 z4 :|2 B6 | B2 z2 b2 |:!p! b6 | b6 | %71
 b6 | z2!mf! ^d'e' ^e'f' | (e'^d') a2 a2 | z2 f^d (ec) | (e^d) G2 G2 | x4!p! b2 | b6 | b6 | b6 | %80
 z2!mf! ^d'e' ^e'f' | (e'^d') a2 a2 | (c'b) ^d2 d2 |1 e6 | e2 z2 b2 :|2 e6 | e2 z2!mf!!<(! e2 || %87
 e6 | f6 | f6 | g6 | g4 a2!<)! | a4 g2 |{g} f4 z2 | z6 |!mf! f6 |!<(! g4 a2 | c'6 | b6!<)! | %99
 (e'd') f2 g2 | (c'b) d2 e2 | (ba) c2 e2 | z4!mf! e2 |!<(! e6 | f6 | f6 | g6 | g6 | a6!<)! | e'6 | %110
 d'6 |!>(! f6 | d'6 | c'6!>)! | e6 | f6 | b6 | a6- | a2 z4 |] %119
V:2
 e2!mf! | e6 | f6 | f6 | g6 | g4 a2 | a4 g2 |{g} f4 z2 | z6 |!mf! f6 |!<(! g4 a2 | c'6 | b6!<)! | %13
 (e'd') f2 g2 | (c'b) d2 e2 | (ba) c2 e2 | z4!mf! e2 |!<(! e6 | f6 | f6 | g6 | g6 | a6!<)! | e'6 | %24
 d'6 |!>(! f6 | d'6 | c'6!>)! | e6 | f6 | b6 | a6- | a2!f! (e'^d') (f'e') |: (3c'/^d'/c'/ z g2 e2 | %34
 z B eg eg | (3a/b/a/ z B2 B2 | z2 (f'^d') (e'c') | e'2 B2 B2 | z2 (^d'b) (c'a) | %39
 (3c'/^d'/c'/ z g2 e2 | z2 (e'^d') (f'e') | (3c'/^d'/c'/ z g2 e2 | z E GB eb | b2 F2 F2 | %44
 z F GA Bc | (3c/^d/c/ z G2 e'2 | ^d'2 c'2 ^d2 |1 G6 | G2 (e'^d') (f'e') :|2 G6- | G2 z4 |: %51
!mf! z2 ^d2 d2 | z2 ^d2 d2 | z2 c2 c2 | c6 | z2 ^d2 d2 | z2 ^d2 d2 | (3^A/B/A/ z =A2 ^A2 | e6 | %59
 ^d6 | ^d6 | ^d6 | ^a4 g2 | ^d2 B2 e2 | ^d4 ^A2 |1 B6 | F2 z4 :|2 B6 | F2 z2 b2 |:!p! b6 | b6 | %71
 b6 | z2!mf! ^d'e' ^e'f' | (e'^d') B2 B2 | z2 f^d (ec) | (e^d) G2 G2 | x4!p! b2 | b6 | b6 | b6 | %80
 z2!mf! ^d'e' ^e'f' | (e'^d') B2 B2 | (c'b) A2 A2 |1 G6 | G2 z2 b2 :|2 G6 | G2 z2!mf!!<(! e2 || %87
 e6 | f6 | f6 | g6 | g4 a2!<)! | a4 g2 |{g} f4 z2 | z6 |!mf! f6 |!<(! g4 a2 | c'6 | b6!<)! | %99
 (e'd') f2 g2 | (c'b) d2 e2 | (ba) c2 e2 | z4!mf! e2 |!<(! e6 | f6 | f6 | g6 | g6 | a6!<)! | e'6 | %110
 d'6 |!>(! f6 | d'6 | c'6!>)! | e6 | f6 | b6 | a6- | a2 z4 |] %119
V:3
 z2 | z2!mf! [A,C]2 [A,C]2 | z2 [A,C]2 [A,C]2 | z2 [A,C]2 [A,C]2 | z2 [A,C]2 [A,C]2 | %5
 z2 [A,C]2 [A,C]2 | z2 [A,C]2 [A,C]2 | z2 [B,D]2 [B,D]2 | B,,2 C,2 D,2 | z2 [B,D]2 [B,D]2 | %10
 z2 [B,D]2 [B,D]2 | z2 [DG]2 [DG]2 | z2 [DG]2 [DG]2 | z6 | z6 | z6 | z6 | z2 [A,C]2 [A,C]2 | %18
 z2 [A,C]2 [A,C]2 | z2 [A,C]2 [A,C]2 | z2 [A,C]2 [A,C]2 | z2 [A,C]2 [A,C]2 | z2 [A,C]2 [A,C]2 | %23
 z2 [FB]2 [FB]2 | z2 [FB]2 [FB]2 | z2 [B,D]2 [B,D]2 | z2 [=FA]2 [FA]2 | z2 [EA]2 [EA]2 | %28
 z2 [A,C]2 [A,C]2 | z2 [B,^D]2 [B,D]2 | z2 [DG]2 [DG]2 | [CE]6- | [CE]2 z4 |: z6 | z6 | z6 | z6 | %37
 z6 | z6 | z6 | z6 | z6 | z6 | z6 | z6 | z4 [CE]2 | [B,^D]2 [A,C]2 [F,A,]2 |1 E,2 B,,2 G,,2 | %48
 E,4 z2 :|2 E,2 B,,2 G,,2 | E,2 z4 |: F,6 | B,6 | ^A,6 | z2 G,2 F,2 | F,6 | B,6 | C6 | z2 G2 F2 | %59
 z2 [F,B,]2 [F,B,]2 | z2 [=G,C]2 [G,C]2 | z2 [G,B,]2 [G,B,]2 | z2 [CE]2 [CE]2 | F,2 ^D,2 G,2 | %64
 F,2 ^E,2 =E,2 |1 B,,2 F,2 ^D,2 | B,2 z4 :|2 B,,2 F,2 ^D,2 | B,,2 z4 |: z2 G2 G2 | z2 G2 G2 | %71
 z2 A2 A2 | B,6 | F,6 | B,,6 | E,4 E,2 | B,,4 z2 | z2 G2 G2 | z2 G2 G2 | z2 A2 A2 | B,6 | F,6 | %82
 B,6 |1 E,2 B,,2 G,,2 | E,2 z4 :|2 E,2 B,,2 G,,2 | E,2 z4 || z2 [A,C]2 [A,C]2 | z2 [A,C]2 [A,C]2 | %89
 z2 [A,C]2 [A,C]2 | z2 [A,C]2 [A,C]2 | z2 [A,C]2 [A,C]2 | z2 [A,C]2 [A,C]2 | z2 [B,D]2 [B,D]2 | %94
 B,,2 C,2 D,2 | z2 [B,D]2 [B,D]2 | z2 [B,D]2 [B,D]2 | z2 [DG]2 [DG]2 | z2 [DG]2 [DG]2 | z6 | z6 | %101
 z6 | z6 | z2 [A,C]2 [A,C]2 | z2 [A,C]2 [A,C]2 | z2 [A,C]2 [A,C]2 | z2 [A,C]2 [A,C]2 | %107
 z2 [A,C]2 [A,C]2 | z2 [A,C]2 [A,C]2 | z2 [FB]2 [FB]2 | z2 [FB]2 [FB]2 | z2 [B,D]2 [B,D]2 | %112
 z2 [=FA]2 [FA]2 | z2 [EA]2 [EA]2 | z2 [A,C]2 [A,C]2 | z2 [B,^D]2 [B,D]2 | z2 [DG]2 [DG]2 | %117
 [CE]6- | [CE]2 z4 |] %119
V:4
 z2 |!mf! A,,6 | E,,6 | A,,6 | E,,6 | A,,6 | E,,6 | B,,6 | z6 | E,,6 | B,,6 | E,,6 | E,6 | E,,6 | %14
 E,6 | A,6 | A,,6 | A,,6 | E,,6 | A,,6 | E,,6 | E,,6 | A,,6 | D,6 | D,6 | B,,6 | D,6 | E,6 | E,,6 | %29
 E,,6 | E,6 | A,,2 E,2 C,2 | A,,2 z4 |: E,,6 | E,,6 | F,6 | B,6 | F,6 | B,,6 | E,,6 | E,,6 | E,,6 | %42
 E,,6 | A,,6 | A,,6 | B,,6 | z4 B,,2 |1 E,2 B,,2 G,,2 | E,,4 z2 :|2 E,2 B,,2 G,,2 | E,,2 z4 |: %51
 B,,6 | F,,6 | C,6 | ^A,,6 | B,,6 | F,,6 | C,6 | F,,6 | B,,6 | ^A,,6 | G,,6 | E,,6 | F,,2 z4 | %64
 F,,6 |1 B,,2 z4 | B,,2 z4 :|2 B,,2 z4 | B,,2 z4 |: E,6 | B,6 | F,6 | B,,6 | F,6 | B,,6 | %75
 E,,4 E,2 | B,,4 z2 | E,6 | B,6 | F,6 | B,,6 | F,6 | B,,6 |1 E,2 B,,2 G,,2 | E,,2 z4 :|2 %85
 E,2 B,,2 G,,2 | E,,2 z4 || A,,6 | E,,6 | A,,6 | E,,6 | A,,6 | E,,6 | B,,6 | z6 | E,,6 | B,,6 | %97
 E,,6 | E,6 | E,,6 | E,6 | A,6 | A,,6 | A,,6 | E,,6 | A,,6 | E,,6 | E,,6 | A,,6 | D,6 | D,6 | %111
 B,,6 | D,6 | E,6 | E,,6 | E,,6 | E,6 | A,,2 E,2 C,2 | A,,2 z4 |] %119

